P3
8 8
255
96 96 96 112 112 112 96 96 96 112 112 112 96 96 96 112 112 112 96 96 96 112 112 112
112 112 112 96 96 96 112 112 112 96 96 96 112 112 112 96 96 96 112 112 112 96 96 96
96 96 96 112 112 112 96 96 96 112 112 112 96 96 96 112 112 112 96 96 96 112 112 112
112 112 112 96 96 96 112 112 112 96 96 96 112 112 112 96 96 96 112 112 112 96 96 96
96 96 96 112 112 112 96 96 96 112 112 112 96 96 96 112 112 112 96 96 96 112 112 112
112 112 112 96 96 96 112 112 112 96 96 96 112 112 112 96 96 96 112 112 112 96 96 96
96 96 96 112 112 112 96 96 96 112 112 112 96 96 96 112 112 112 96 96 96 112 112 112
112 112 112 96 96 96 112 112 112 96 96 96 112 112 112 96 96 96 112 112 112 96 96 96
