P3
# Neutral WAN workflow placeholder; replace it in every Load Image node.
8 8
255
48 56 72  48 56 72  64 72 88  64 72 88  80 88 104  80 88 104  96 104 120  96 104 120
48 56 72  48 56 72  64 72 88  64 72 88  80 88 104  80 88 104  96 104 120  96 104 120
64 72 88  64 72 88  80 88 104  80 88 104  96 104 120  96 104 120  112 120 136  112 120 136
64 72 88  64 72 88  80 88 104  80 88 104  96 104 120  96 104 120  112 120 136  112 120 136
80 88 104  80 88 104  96 104 120  96 104 120  112 120 136  112 120 136  128 136 152  128 136 152
80 88 104  80 88 104  96 104 120  96 104 120  112 120 136  112 120 136  128 136 152  128 136 152
96 104 120  96 104 120  112 120 136  112 120 136  128 136 152  128 136 152  144 152 168  144 152 168
96 104 120  96 104 120  112 120 136  112 120 136  128 136 152  128 136 152  144 152 168  144 152 168
